core/img/node_molecule-co2.svg

<?xml version="1.0" encoding="UTF-8" standalone="no"?>
<!-- Created with Inkscape (http://www.inkscape.org/) -->

<svg
   width="309"
   height="348"
   viewBox="0 0 81.756248 92.075003"
   version="1.1"
   id="svg5"
   inkscape:version="1.1 (c68e22c387, 2021-05-23)"
   sodipodi:docname="node_molecule-co.svg"
   inkscape:export-filename="C:\Users\jfridisch\ownCloud\Git\jmqtt-crash-doc-logs\nouveau logo jmqtt\logo_eq.png"
   inkscape:export-xdpi="96"
   inkscape:export-ydpi="96"
   xmlns:inkscape="http://www.inkscape.org/namespaces/inkscape"
   xmlns:sodipodi="http://sodipodi.sourceforge.net/DTD/sodipodi-0.dtd"
   xmlns="http://www.w3.org/2000/svg"
   xmlns:svg="http://www.w3.org/2000/svg">
  <path
     id="path13399"
     style="fill:#f8d800;fill-opacity:1;stroke-width:1.29307"
     d="M 113.12305 33.605469 L 104.7168 33.992188 C 84.753189 34.911985 62.756905 44.518429 47.070312 59.167969 C 27.825749 77.140276 17.332121 98.11319 14.730469 123.79688 L 13.845703 132.52539 L 19.716797 132.52539 L 25.585938 132.52539 L 26.445312 124.44336 C 29.387136 96.785125 43.173612 74.383386 66.861328 58.771484 C 77.909908 51.489684 88.160256 47.786561 103.02539 45.707031 L 113.89844 44.1875 L 113.50977 38.896484 L 113.12305 33.605469 z M 113.76953 64.912109 L 105.36133 65.697266 C 75.878228 68.450425 49.683506 94.743798 46.917969 124.35938 L 46.15625 132.52539 L 52.162109 132.52539 C 58.134262 132.52539 58.166016 132.50084 58.166016 128.11523 C 58.166016 116.56208 67.749866 97.626891 77.507812 89.898438 C 84.96456 83.992604 97.908372 78.384747 106.26367 77.439453 L 113.76953 76.589844 L 113.76953 70.75 L 113.76953 64.912109 z M 113.12305 96.966797 L 108.59766 97.398438 C 98.581852 98.355006 86.881755 106.44739 82.074219 115.74414 C 79.777426 120.18563 77.486735 130.06373 78.408203 131.55469 C 78.784822 132.16399 81.490807 132.48696 84.419922 132.27148 C 89.460534 131.90064 89.799767 131.61328 90.773438 126.89648 C 92.666074 117.7279 99.350808 111.36152 109.24414 109.30469 C 112.85383 108.55424 113.12305 108.09762 113.12305 102.73242 L 113.12305 96.966797 z M 191.62109 105.39453 C 162.7391 105.34057 137.19026 115.8979 116.60547 136.39453 C 104.5483 148.40008 97.025376 160.96104 91.041016 179.07617 C 87.732723 189.09057 87.403552 191.79044 87.335938 209.46289 C 87.250581 231.77521 89.234528 240.37421 98.664062 258.55859 C 114.04857 288.22685 143.62964 308.88279 177.37891 313.52344 C 209.00496 317.87213 243.58656 305.67755 265.7793 282.34961 C 286.02463 261.06877 295.12519 238.48502 295.1543 209.46289 C 295.17658 186.75083 289.53223 168.67235 276.56055 149.9082 C 257.36699 122.1437 225.52581 105.45788 191.62109 105.39453 z M 191.82031 117.11914 C 205.19139 117.24579 218.56571 120.21584 230.74609 126.08984 C 285.40707 152.45018 300.99561 222.05586 262.61328 268.37891 C 249.69854 283.96545 230.34149 296.21195 212.86719 299.84766 C 178.7112 306.95418 149.10128 298.62474 126.05273 275.42773 C 107.77101 257.02825 99.71358 238.99369 98.589844 213.95703 C 98.035323 201.60258 98.380212 197.24131 100.60156 188.45703 C 106.8747 163.65014 121.17176 144.04396 142.79492 130.59961 C 157.44124 121.49316 174.62892 116.9563 191.82031 117.11914 z M 201.08203 168.82031 C 200.14133 168.83469 199.09297 168.88988 197.89453 168.97656 C 183.21976 170.03804 174.58265 181.34165 173.50586 200.89258 C 172.43645 220.30918 177.86384 233.41198 189.16992 238.70508 C 200.55057 244.03311 214.70941 238.69281 220.61328 226.84766 C 230.15068 207.71249 225.37847 180.08968 211.08789 171.71484 C 207.24561 169.46311 205.15839 168.75799 201.08203 168.82031 z M 155.40625 168.89453 C 143.09935 168.9453 134.7835 174.84865 129.10156 187.48047 C 124.72397 197.21255 124.9139 214.5263 129.50586 224.47266 C 133.11634 232.2931 138.79914 237.50744 146.0957 239.69531 C 150.98562 241.16155 163.10496 240.52613 166.67188 238.61719 C 168.26824 237.7628 168.73107 236.22772 168.35742 233.02734 L 167.8418 228.61719 L 158.48438 229.2168 C 149.49644 229.79361 148.94763 229.65965 144.60156 225.84375 C 139.18325 221.08642 137.04492 214.7272 137.04492 203.375 C 137.04492 184.93574 148.26649 175.87827 165.35547 180.52539 C 167.73712 181.17307 170.13089 172.85355 168.13672 170.85938 C 167.36706 170.08972 162.76906 169.23495 157.91992 168.96094 C 157.06357 168.91255 156.22671 168.89115 155.40625 168.89453 z M 198.89062 178.85938 C 201.98047 178.85228 205.14745 180.36425 207.95898 183.56641 C 210.12741 186.03611 212.51179 190.25501 213.25781 192.94141 C 216.37139 204.15327 213.61293 221.1921 207.80078 226.65234 C 204.31534 229.92674 198.34929 231.23007 194.42188 229.57422 C 185.44315 225.78875 181.061 207.47482 185.53125 192.42188 C 188.11721 183.714 193.38265 178.87201 198.89062 178.85938 z M 241.1582 214.14648 C 235.26069 214.12528 229.72175 217.05286 230.88672 220.8457 C 232.04381 224.61288 231.7133 224.49322 236.26953 222.77344 C 241.14807 220.932 244.36914 222.9341 244.36914 227.80859 C 244.36914 232.01016 242.48972 235.33871 235.75977 243.06055 C 232.67125 246.60428 230.14453 250.82317 230.14453 252.43555 C 230.14453 255.26108 230.55962 255.36719 241.56836 255.36719 C 247.85055 255.36719 253.29362 255.06177 253.66602 254.68945 C 254.03792 254.31714 254.06719 252.5718 253.73047 250.81055 C 253.18994 247.98301 252.45595 247.60938 247.45117 247.60938 C 244.33373 247.60938 241.7832 247.13477 241.7832 246.55664 C 241.7832 245.97851 243.50085 243.86031 245.60156 241.84766 C 255.0548 232.79093 255.97062 219.32958 247.39844 215.42383 C 245.4719 214.54604 243.29135 214.15416 241.1582 214.14648 z "
     transform="scale(0.26458333)" />
  <sodipodi:namedview
     id="namedview7"
     pagecolor="#505050"
     bordercolor="#ffffff"
     borderopacity="1"
     inkscape:pageshadow="0"
     inkscape:pageopacity="0"
     inkscape:pagecheckerboard="1"
     inkscape:document-units="px"
     showgrid="false"
     units="mm"
     inkscape:zoom="1.4142136"
     inkscape:cx="126.57211"
     inkscape:cy="150.96729"
     inkscape:window-width="1920"
     inkscape:window-height="1017"
     inkscape:window-x="1912"
     inkscape:window-y="-8"
     inkscape:window-maximized="1"
     inkscape:current-layer="svg5" />
  <defs
     id="defs5035" />
</svg>

<?xml version="1.0" encoding="UTF-8"?>
<svg width="309" height="348" version="1.1" viewBox="0 0 81.756 92.075" xmlns="http://www.w3.org/2000/svg">
 <path transform="scale(.26458)" d="m113.12 33.605-8.4062 0.38672c-19.964 0.9198-41.96 10.526-57.646 25.176-19.245 17.972-29.738 38.945-32.34 64.629l-0.88477 8.7285h5.8711 5.8691l0.85937-8.082c2.9418-27.658 16.728-50.06 40.416-65.672 11.049-7.2818 21.299-10.985 36.164-13.064l10.873-1.5195-0.38867-5.291-0.38672-5.291zm0.64648 31.307-8.4082 0.78516c-29.483 2.7532-55.678 29.047-58.443 58.662l-0.76172 8.166h6.0059c5.9722 0 6.0039-0.02455 6.0039-4.4102 0-11.553 9.5838-30.488 19.342-38.217 7.4567-5.9058 20.401-11.514 28.756-12.459l7.5059-0.84961v-5.8398-5.8379zm-0.64648 32.055-4.5254 0.43164c-10.016 0.95657-21.716 9.049-26.523 18.346-2.2968 4.4415-4.5875 14.32-3.666 15.811 0.37662 0.6093 3.0826 0.93227 6.0117 0.71679 5.0406-0.37084 5.3798-0.6582 6.3535-5.375 1.8926-9.1686 8.5774-15.535 18.471-17.592 3.6097-0.75045 3.8789-1.2071 3.8789-6.5723v-5.7656zm78.498 8.4277c-28.882-0.05396-54.431 10.503-75.016 31-12.057 12.006-19.58 24.567-25.564 42.682-3.3083 10.014-3.6375 12.714-3.7051 30.387-0.085357 22.312 1.8986 30.911 11.328 49.096 15.385 29.668 44.966 50.324 78.715 54.965 31.626 4.3487 66.208-7.8459 88.4-31.174 20.245-21.281 29.346-43.865 29.375-72.887 0.02228-22.712-5.6221-40.791-18.594-59.555-19.194-27.764-51.035-44.45-84.939-44.514zm0.19922 11.725c13.371 0.12665 26.745 3.0967 38.926 8.9707 54.661 26.36 70.25 95.966 31.867 142.29-12.915 15.587-32.272 27.833-49.746 31.469-34.156 7.1065-63.766-1.2229-86.814-24.42-18.282-18.399-26.339-36.434-27.463-61.471-0.55452-12.354-0.20963-16.716 2.0117-25.5 6.2731-24.807 20.57-44.413 42.193-57.857 14.646-9.1064 31.834-13.643 49.025-13.48zm9.2617 51.701c-0.9407 0.01438-1.9891 0.06957-3.1875 0.15625-14.675 1.0615-23.312 12.365-24.389 31.916-1.0694 19.417 4.358 32.519 15.664 37.812 11.381 5.328 25.539-0.01227 31.443-11.857 9.5374-19.135 4.7652-46.758-9.5254-55.133-3.8423-2.2517-5.9295-2.9568-10.006-2.8945zm-45.676 0.07422c-12.307 0.05077-20.623 5.9541-26.305 18.586-4.3776 9.7321-4.1877 27.046 0.4043 36.992 3.6105 7.8204 9.2933 13.035 16.59 15.223 4.8899 1.4662 17.009 0.83082 20.576-1.0781 1.5964-0.85439 2.0592-2.3895 1.6855-5.5898l-0.51562-4.4102-9.3574 0.59961c-8.9879 0.57681-9.5368 0.44285-13.883-3.373-5.4183-4.7573-7.5566-11.117-7.5566-22.469 0-18.439 11.222-27.497 28.311-22.85 2.3816 0.64768 4.7754-7.6718 2.7812-9.666-0.76966-0.76966-5.3677-1.6244-10.217-1.8984-0.85635-0.04839-1.6932-0.06979-2.5137-0.06641zm43.484 9.9648c3.0898-0.0071 6.2568 1.5049 9.0684 4.707 2.1684 2.4697 4.5528 6.6886 5.2988 9.375 3.1136 11.212 0.35512 28.251-5.457 33.711-3.4854 3.2744-9.4515 4.5777-13.379 2.9219-8.9787-3.7855-13.361-22.099-8.8906-37.152 2.586-8.7079 7.8514-13.55 13.359-13.562zm42.268 35.287c-5.8975-0.0212-11.436 2.9064-10.271 6.6992 1.1571 3.7672 0.82658 3.6475 5.3828 1.9277 4.8785-1.8414 8.0996 0.16066 8.0996 5.0352 0 4.2016-1.8794 7.5301-8.6094 15.252-3.0885 3.5437-5.6152 7.7626-5.6152 9.375 0 2.8255 0.41509 2.9316 11.424 2.9316 6.2822 0 11.725-0.30542 12.098-0.67774 0.3719-0.37231 0.40117-2.1176 0.06445-3.8789-0.54053-2.8275-1.2745-3.2012-6.2793-3.2012-3.1174 0-5.668-0.47461-5.668-1.0527s1.7176-2.6963 3.8184-4.709c9.4532-9.0567 10.369-22.518 1.7969-26.424-1.9265-0.87779-4.1071-1.2697-6.2402-1.2774z" fill="#f8d800" stroke-width="1.2931"/>
</svg>
